saw-blade.svg

<svg fill="currentColor" viewBox="0 0 24 24"><path d="M20 15s-1.4 1.3 1.1 2l-2.8 2.8h-2.8s-1.9-.1-.5 2.2h-4l-2-2s-1.3-1.4-2 1.1l-2.8-2.8v-2.8s.1-1.9-2.2-.5v-4l2-2s1.4-1.3-1.2-1.9l2.8-2.9h2.9s1.9.1.5-2.2h4l2 2s1.3 1.4 2-1.2l2.8 2.8v2.9s-.1 1.9 2.2.5v4zm-6-3a2 2 0 0 0-2-2 2 2 0 0 0-2 2 2 2 0 0 0 2 2 2 2 0 0 0 2-2"/></svg>

<svg  viewBox="0 0 24 24" fill="currentColor"><path  d="M20,15C20,15 18.6,16.3 21.1,17L18.3,19.8H15.5C15.5,19.8 13.6,19.7 15,22H11L9,20C9,20 7.7,18.6 7,21.1L4.2,18.3V15.5C4.2,15.5 4.3,13.6 2,15V11L4,9C4,9 5.4,7.7 2.8,7.1L5.6,4.2H8.5C8.5,4.2 10.4,4.3 9,2H13L15,4C15,4 16.3,5.4 17,2.8L19.8,5.6V8.5C19.8,8.5 19.7,10.4 22,9V13L20,15M14,12A2,2 0 0,0 12,10A2,2 0 0,0 10,12A2,2 0 0,0 12,14A2,2 0 0,0 14,12Z"/></svg>
